; generated by PrusaSlicer 2.8.1+win64 on 2024-10-15 at 23:12:55 UTC


;
;

;
;

;
;

;
;
; 

; external perimeters extrusion width = 0.45mm
; perimeters extrusion width = 0.45mm
; infill extrusion width = 0.45mm
; solid infill extrusion width = 0.45mm
; top infill extrusion width = 0.40mm
; first layer extrusion width = 0.42mm

; external perimeters extrusion width = 0.45mm
; perimeters extrusion width = 0.45mm
; infill extrusion width = 0.45mm
; solid infill extrusion width = 0.45mm
; top infill extrusion width = 0.40mm
; first layer extrusion width = 0.42mm

; external perimeters extrusion width = 0.45mm
; perimeters extrusion width = 0.45mm
; infill extrusion width = 0.45mm
; solid infill extrusion width = 0.45mm
; top infill extrusion width = 0.40mm
; first layer extrusion width = 0.42mm

; external perimeters extrusion width = 0.45mm
; perimeters extrusion width = 0.45mm
; infill extrusion width = 0.45mm
; solid infill extrusion width = 0.45mm
; top infill extrusion width = 0.40mm
; first layer extrusion width = 0.42mm

; external perimeters extrusion width = 0.45mm
; perimeters extrusion width = 0.45mm
; infill extrusion width = 0.45mm
; solid infill extrusion width = 0.45mm
; top infill extrusion width = 0.40mm
; first layer extrusion width = 0.42mm

; external perimeters extrusion width = 0.45mm
; perimeters extrusion width = 0.45mm
; infill extrusion width = 0.45mm
; solid infill extrusion width = 0.45mm
; top infill extrusion width = 0.40mm
; first layer extrusion width = 0.42mm

; external perimeters extrusion width = 0.45mm
; perimeters extrusion width = 0.45mm
; infill extrusion width = 0.45mm
; solid infill extrusion width = 0.45mm
; top infill extrusion width = 0.40mm
; first layer extrusion width = 0.42mm

; external perimeters extrusion width = 0.45mm
; perimeters extrusion width = 0.45mm
; infill extrusion width = 0.45mm
; solid infill extrusion width = 0.45mm
; top infill extrusion width = 0.40mm
; first layer extrusion width = 0.42mm

; external perimeters extrusion width = 0.45mm
; perimeters extrusion width = 0.45mm
; infill extrusion width = 0.45mm
; solid infill extrusion width = 0.45mm
; top infill extrusion width = 0.40mm
; first layer extrusion width = 0.42mm

; external perimeters extrusion width = 0.45mm
; perimeters extrusion width = 0.45mm
; infill extrusion width = 0.45mm
; solid infill extrusion width = 0.45mm
; top infill extrusion width = 0.40mm
; first layer extrusion width = 0.42mm

; external perimeters extrusion width = 0.45mm
; perimeters extrusion width = 0.45mm
; infill extrusion width = 0.45mm
; solid infill extrusion width = 0.45mm
; top infill extrusion width = 0.40mm
; first layer extrusion width = 0.42mm

; external perimeters extrusion width = 0.45mm
; perimeters extrusion width = 0.45mm
; infill extrusion width = 0.45mm
; solid infill extrusion width = 0.45mm
; top infill extrusion width = 0.40mm
; first layer extrusion width = 0.42mm

M73 P0 R120
M73 Q0 S120
M201 X2500 Y2500 Z400 E5000 ; sets maximum accelerations, mm/sec^2
M203 X180 Y180 Z12 E80 ; sets maximum feedrates, mm / sec
M204 P2000 R1250 T2500 ; sets acceleration (P, T) and retract acceleration (R), mm/sec^2
M205 X8.00 Y8.00 Z2.00 E10.00 ; sets the jerk limits, mm/sec
M205 S0 T0 ; sets the minimum extruding and travel feed rate, mm/sec

M486 S0
M486 AHour Flap.stl
M486 S-1
M486 S1
M486 AHour Flap.stl
M486 S-1
M486 S2
M486 AHour Flap.stl
M486 S-1
M486 S3
M486 AHour Flap.stl
M486 S-1
M486 S4
M486 AHour Flap.stl
M486 S-1
M486 S5
M486 AHour Flap.stl
M486 S-1
M486 S6
M486 AHour Flap.stl
M486 S-1
M486 S7
M486 AHour Flap.stl
M486 S-1
M486 S8
M486 AHour Flap.stl
M486 S-1
M486 S9
M486 AHour Flap.stl
M486 S-1
M486 S10
M486 AHour Flap.stl
M486 S-1
M486 S11
M486 AHour Flap.stl
M486 S-1

;TYPE:Custom
M862.3 P "MINI" ; printer model check
G90 ; use absolute coordinates
M83 ; extruder relative mode
M104 S170 ; set extruder temp for bed leveling
M140 S60 ; set bed temp
M109 R170 ; wait for bed leveling temp
M190 S60 ; wait for bed temp
M204 T1250 ; set travel acceleration
G28 ; home all without mesh bed level
G29 ; mesh bed leveling 
M204 T2500 ; restore travel acceleration
M104 S215 ; set extruder temp
G92 E0
G1 Y-2 X179 F2400
G1 Z3 F720
M109 S215 ; wait for extruder temp

; intro line
G1 X170 F1000
G1 Z0.2 F720
G1 X110 E8 F900
G1 X40 E10 F700
M73 P0 R119
M73 Q0 S119
G92 E0

M221 S95 ; set flow
G21 ; set units to millimeters
G90 ; use absolute coordinates
M83 ; use relative distances for extrusion

M900 K0.2 ; Filament gcode LA 1.5
; ; Filament gcode LA 1.0




M107
;LAYER_CHANGE
;Z:0.2
;HEIGHT:0.2
G1 E-3.2 F4200
G1 Z.4 F720
G1 X27.708 Y31.6 F9000
G1 Z.2 F720
G1 E3.2 F2400
M204 P600
;TYPE:Skirt/Brim
;WIDTH:0.42
G1 F1200
G3 X28.786 Y30.903 I2.908 J3.316 E.04039
G3 X31.456 Y30.303 I2.961 J6.935 E.08628
G1 X75.364 Y30.184 E1.37671
G1 X110.273 Y30.184 E1.09455
G1 X154.85 Y30.639 E1.39775
G3 X158.635 Y32.559 I-.483 J5.645 E.1364
G3 X159.496 Y34.935 I-3.433 J2.587 E.08043
G1 X159.699 Y97.597 E1.96473
G1 X159.685 Y153.222 E1.74408
G1 X159.294 Y154.47 E.04101
G1 X158.498 Y155.167 E.03317
G1 X154.996 Y156.97 E.1235
G1 X153.995 Y157.213 E.0323
G1 X119.991 Y157.213 E1.06617
G1 X32.087 Y156.907 E2.75618
G1 X31.093 Y156.664 E.03208
G1 X27.591 Y154.861 E.1235
G1 X26.66 Y153.942 E.04102
G1 X26.404 Y152.926 E.03285
G1 X26.086 Y90.811 E1.9476
G1 X26.086 Y66.491 E.76254
G1 X26.215 Y34.628 E.99905
G3 X27.663 Y31.639 I4.401 J.288 E.10677
M204 P1000
G1 E-2.24 F4200
;WIPE_START
G1 F7200
G1 X27.708 Y31.6 E-.033
G3 X28.786 Y30.903 I2.909 J3.316 E-.71392
G3 X29.143 Y30.761 I2.961 J6.935 E-.21308
;WIPE_END
G1 Z.4 F720
M486 S9
G1 X120.686 Y58.368 F9000
G1 Z.2 F720
G1 E3.2 F2400
M204 P600
;TYPE:Perimeter
;WIDTH:0.419999
G1 F1200
G1 X120.571 Y58.249 E.00519
G1 X120.237 Y58.105 E.0114
G2 X120.367 Y57.533 I-1.859 J-.723 E.01846
G1 X120.367 Y54.106 E.10745
G1 X120.273 Y53.604 E.01601
G1 X120.047 Y53.211 E.01421
G2 X119.303 Y52.725 I-1.43 J1.375 E.0281
G1 X118.87 Y52.653 E.01376
G1 X117.471 Y52.653 E.04386
G1 X117.471 Y35.427 E.54011
G1 X117.484 Y34.89 E.01684
G1 X117.589 Y34.666 E.00776
G3 X118.297 Y34.166 I1.414 J1.25 E.02742
G3 X119.399 Y33.962 I1.219 J3.505 E.03527
G1 X154.23 Y33.964 E1.0921
G1 X154.955 Y34.048 E.02288
G3 X155.857 Y34.488 I-.687 J2.554 E.03166
G3 X156.143 Y35.005 I-.574 J.654 E.0189
G1 X156.143 Y52.653 E.55334
G1 X154.744 Y52.653 E.04386
G2 X153.896 Y52.912 I.323 J2.581 E.02794
G2 X153.342 Y53.603 I1.044 J1.405 E.02807
G1 X153.247 Y54.108 E.01611
G1 X153.252 Y56.92 E.08817
G1 X153.261 Y57.73 E.0254
G1 X153.375 Y58.103 E.01223
G1 X153.034 Y58.255 E.01171
G2 X152.694 Y58.708 I.752 J.918 E.01793
G1 X152.641 Y59.021 E.00995
G1 X152.641 Y59.881 E.02696
G1 X120.973 Y59.881 E.99293
G1 X120.973 Y59.021 E.02696
G2 X120.826 Y58.515 I-1.165 J.065 E.01666
G1 X120.727 Y58.412 E.00448
M204 P1000
G1 X120.727 Y58.412 F9000
G1 X120.416 Y58.632
M204 P600
G1 F1200
G1 X120.298 Y58.522 E.00506
G1 X120.031 Y58.455 E.00863
G1 X119.423 Y58.455 E.01906
G2 X119.99 Y57.533 I-.533 J-.963 E.03548
G1 X119.99 Y54.106 E.10745
G2 X119.752 Y53.446 I-1.3 J.096 E.02227
G1 X119.355 Y53.139 E.01574
G1 X118.87 Y53.03 E.01559
G1 X117.094 Y53.03 E.05569
G1 X117.094 Y34.985 E.56579
G1 X117.173 Y34.631 E.01137
G1 X117.442 Y34.26 E.01437
G3 X118.859 Y33.628 I1.829 J2.199 E.04926
G1 X119.388 Y33.584 E.01664
G1 X154.113 Y33.587 E1.08878
G3 X155.185 Y33.722 I-.568 J8.804 E.0339
G1 X155.685 Y33.915 E.0168
G1 X156.173 Y34.26 E.01874
G1 X156.441 Y34.631 E.01435
G1 X156.52 Y34.985 E.01137
G1 X156.52 Y53.03 E.56579
G1 X154.744 Y53.03 E.05569
G1 X154.179 Y53.181 E.01834
G2 X153.711 Y53.701 I.75 J1.147 E.02218
G1 X153.624 Y54.107 E.01302
G1 X153.63 Y57.609 E.1098
G2 X154.219 Y58.455 I1.065 J-.113 E.03372
G1 X153.452 Y58.471 E.02405
G2 X153.107 Y58.717 I.202 J.649 E.01351
G1 X153.018 Y59.021 E.00993
G1 X153.018 Y60.258 E.03879
G1 X120.596 Y60.258 E1.01657
G1 X120.596 Y59.021 E.03879
G1 X120.508 Y58.718 E.00989
G1 X120.46 Y58.673 E.00206
M204 P1000
G1 X120.46 Y58.673 F9000
G1 X120.158 Y58.895
M204 P600
;TYPE:External perimeter
G1 F1200
G2 X120.096 Y58.844 I-.194 J.173 E.00253
G1 X119.58 Y58.832 E.01618
;WIDTH:0.458245
G1 X119.369 Y58.813 E.00732
;WIDTH:0.496491
G1 X119.158 Y58.794 E.00799
;WIDTH:0.534737
G1 X118.947 Y58.775 E.00866
G1 X117.018 Y58.776 E.07889
;WIDTH:0.532541
G1 X116.773 Y58.776 E.00997
G1 X116.773 Y58.287 E.01991
G1 X117.018 Y58.287 E.00997
;WIDTH:0.534737
G1 X118.947 Y58.283 E.07889
G1 X119.097 Y58.211 E.0068
;WIDTH:0.486266
G1 X119.247 Y58.139 E.00613
;WIDTH:0.437795
G1 X119.433 Y57.983 E.00797
;WIDTH:0.419999
G2 X119.613 Y57.533 I-.668 J-.529 E.01541
G1 X119.613 Y54.106 E.10745
G2 X119.472 Y53.704 I-.853 J.073 E.0135
G1 X119.216 Y53.495 E.01036
G1 X118.87 Y53.407 E.01119
G1 X116.717 Y53.407 E.06751
G1 X116.717 Y34.965 E.57823
G3 X117.274 Y33.908 I1.541 J.137 E.03846
G3 X118.244 Y33.384 I1.92 J2.39 E.03476
G3 X119.378 Y33.207 I1.308 J4.673 E.03607
G1 X154.273 Y33.21 E1.09411
G3 X155.859 Y33.579 I-.168 J4.31 E.05136
G3 X156.643 Y34.227 I-1.475 J2.582 E.03205
G3 X156.897 Y34.965 I-1.467 J.919 E.02468
G1 X156.897 Y53.407 E.57823
G1 X154.744 Y53.407 E.06751
G2 X154.182 Y53.655 I.112 J1.015 E.01956
G2 X154.001 Y54.106 I.668 J.529 E.01545
G1 X154.008 Y57.609 E.10983
G2 X154.22 Y58.022 I.81 J-.156 E.01475
;WIDTH:0.458245
G1 X154.37 Y58.109 E.00599
;WIDTH:0.496491
G1 X154.519 Y58.196 E.00651
;WIDTH:0.534737
G1 X154.668 Y58.283 E.00706
G1 X156.597 Y58.287 E.07889
;WIDTH:0.532541
G1 X156.841 Y58.287 E.00993
G1 X156.841 Y58.531 E.00993
G1 X156.841 Y58.776 E.00997
G1 X156.596 Y58.776 E.00997
;WIDTH:0.534737
G1 X154.668 Y58.775 E.07885
G1 X154.487 Y58.794 E.00744
;WIDTH:0.496491
G1 X154.306 Y58.813 E.00686
;WIDTH:0.458245
G1 X154.125 Y58.832 E.00629
;WIDTH:0.419999
G1 X153.584 Y58.832 E.01696
G2 X153.395 Y59.021 I.029 J.218 E.00901
G1 X153.395 Y60.635 E.05061
G1 X120.219 Y60.635 E1.04021
G1 X120.219 Y59.021 E.05061
G2 X120.192 Y58.944 I-.255 J.047 E.00257
M204 P1000
G1 E-2.24 F4200
;WIPE_START
G1 F7200
G1 X120.158 Y58.895 E-.03305
G2 X120.096 Y58.844 I-.194 J.172 E-.04467
G1 X119.58 Y58.832 E-.28603
G1 X119.369 Y58.813 E-.1174
G1 X119.158 Y58.794 E-.1174
G1 X118.947 Y58.775 E-.1174
G1 X118.507 Y58.775 E-.24405
;WIPE_END
G1 Z.4 F720
G1 X155.973 Y35.61 F9000
G1 Z.2 F720
G1 E3.2 F2400
M204 P600
;TYPE:Solid infill
;WIDTH:0.420276
G1 F1200
G1 X154.726 Y34.363 E.05533
G1 X154.133 Y34.303 E.0187
G1 X155.804 Y35.974 E.07415
G1 X155.804 Y36.508 E.01676
G1 X153.599 Y34.303 E.09785
G1 X153.066 Y34.303 E.01672
G1 X155.804 Y37.041 E.1215
G1 X155.804 Y37.575 E.01676
G1 X152.532 Y34.303 E.14519
G1 X151.998 Y34.303 E.01676
G1 X155.804 Y38.109 E.16889
G1 X155.804 Y38.642 E.01672
G1 X151.464 Y34.303 E.19256
G1 X150.931 Y34.303 E.01672
G1 X155.804 Y39.176 E.21624
G1 X155.804 Y39.71 E.01676
G1 X150.397 Y34.303 E.23993
G1 X149.863 Y34.303 E.01676
M73 P0 R118
M73 Q0 S118
G1 X155.804 Y40.243 E.2636
G1 X155.804 Y40.777 E.01676
G1 X149.33 Y34.303 E.28728
G1 X148.796 Y34.303 E.01676
G1 X155.804 Y41.311 E.31097
G1 X155.804 Y41.844 E.01672
G1 X148.262 Y34.303 E.33465
G1 X147.729 Y34.303 E.01672
G1 X155.804 Y42.378 E.35832
G1 X155.804 Y42.912 E.01676
G1 X147.195 Y34.303 E.38202
G1 X146.661 Y34.303 E.01676
G1 X155.804 Y43.445 E.40569
G1 X155.804 Y43.979 E.01676
G1 X146.127 Y34.303 E.42939
G1 X145.594 Y34.303 E.01672
G1 X155.804 Y44.513 E.45306
G1 X155.804 Y45.046 E.01672
G1 X145.06 Y34.303 E.47673
G1 X144.526 Y34.303 E.01676
M73 P1 R118
M73 Q1 S118
G1 X155.804 Y45.58 E.50043
G1 X155.804 Y46.114 E.01676
G1 X143.993 Y34.303 E.5241
G1 X143.459 Y34.303 E.01676
G1 X155.804 Y46.647 E.54778
G1 X155.804 Y47.181 E.01676
G1 X142.925 Y34.303 E.57147
G1 X142.392 Y34.303 E.01672
G1 X155.804 Y47.715 E.59515
G1 X155.804 Y48.248 E.01672
G1 X141.858 Y34.302 E.61884
G1 X141.324 Y34.302 E.01676
G1 X155.804 Y48.782 E.64254
G1 X155.804 Y49.316 E.01676
G1 X140.79 Y34.302 E.66623
G1 X140.257 Y34.302 E.01672
G1 X155.804 Y49.849 E.68989
G1 X155.804 Y50.383 E.01676
G1 X139.723 Y34.302 E.71358
G1 X139.189 Y34.302 E.01676
G1 X155.804 Y50.917 E.73728
G1 X155.804 Y51.45 E.01672
G1 X138.656 Y34.302 E.76093
G1 X138.122 Y34.302 E.01676
G1 X155.804 Y51.984 E.78462
G1 X155.804 Y52.314 E.01035
G1 X155.6 Y52.314 E.0064
G1 X137.588 Y34.302 E.79927
G1 X137.055 Y34.302 E.01672
G1 X155.066 Y52.314 E.79925
G2 X154.558 Y52.339 I-.139 J2.328 E.01599
G1 X136.521 Y34.302 E.80038
G1 X135.987 Y34.302 E.01676
G1 X154.126 Y52.441 E.8049
G2 X153.754 Y52.602 I.37 J1.364 E.01276
G1 X135.453 Y34.302 E.81207
G1 X134.92 Y34.302 E.01672
G1 X153.456 Y52.838 E.82252
G2 X153.215 Y53.131 I.95 J1.023 E.01194
G1 X134.386 Y34.302 E.83552
G1 X133.852 Y34.302 E.01676
G1 X153.033 Y53.483 E.85114
G2 X152.932 Y53.915 I1.351 J.544 E.01397
G1 X133.319 Y34.302 E.87031
G1 X132.785 Y34.302 E.01676
G1 X152.908 Y54.425 E.89294
G1 X152.909 Y54.96 E.01679
G1 X132.251 Y34.302 E.91668
G1 X131.718 Y34.302 E.01672
G1 X152.91 Y55.494 E.94038
G1 X152.911 Y56.029 E.01679
G1 X131.184 Y34.302 E.96412
G1 X130.65 Y34.302 E.01676
G1 X152.912 Y56.564 E.98786
G1 X152.913 Y57.098 E.01676
G1 X130.117 Y34.302 E1.01155
G1 X129.583 Y34.302 E.01676
G1 X152.915 Y57.634 E1.03534
G1 X152.957 Y57.91 E.00876
G1 X152.776 Y58.028 E.00678
G1 X129.049 Y34.302 E1.05284
G1 X128.515 Y34.302 E.01676
G1 X152.521 Y58.307 E1.06522
G2 X152.358 Y58.678 I.831 J.588 E.0128
G1 X127.982 Y34.302 E1.08166
G1 X127.448 Y34.301 E.01676
G1 X152.302 Y59.155 E1.10288
G1 X152.302 Y59.542 E.01214
G1 X152.155 Y59.542 E.00461
G1 X126.914 Y34.301 E1.12005
G1 X126.381 Y34.301 E.01672
G1 X151.621 Y59.542 E1.12003
G1 X151.087 Y59.542 E.01676
G1 X125.847 Y34.301 E1.12003
G1 X125.313 Y34.301 E.01676
G1 X150.554 Y59.542 E1.12005
G1 X150.02 Y59.542 E.01676
G1 X124.78 Y34.301 E1.12003
G1 X124.246 Y34.301 E.01676
G1 X149.486 Y59.542 E1.12003
G1 X148.953 Y59.542 E.01672
M73 P1 R117
M73 Q1 S117
G1 X123.712 Y34.301 E1.12005
G1 X123.178 Y34.301 E.01676
G1 X148.419 Y59.542 E1.12005
G1 X147.885 Y59.542 E.01676
G1 X122.645 Y34.301 E1.12003
G1 X122.111 Y34.301 E.01676
G1 X147.352 Y59.542 E1.12005
G1 X146.818 Y59.542 E.01676
G1 X121.577 Y34.301 E1.12005
G1 X121.044 Y34.301 E.01672
G1 X146.284 Y59.542 E1.12003
G1 X145.751 Y59.542 E.01672
G1 X120.51 Y34.301 E1.12005
G1 X119.976 Y34.301 E.01676
G1 X145.217 Y59.542 E1.12005
G1 X144.683 Y59.542 E.01676
G1 X119.443 Y34.302 E1.12
G1 X118.948 Y34.34 E.01558
G1 X144.15 Y59.542 E1.11832
G1 X143.616 Y59.542 E.01676
M73 P2 R117
M73 Q2 S117
G1 X118.518 Y34.443 E1.11373
G1 X118.156 Y34.615 E.01258
G1 X143.082 Y59.542 E1.10609
G1 X142.549 Y59.542 E.01672
G1 X117.876 Y34.869 E1.09484
G2 X117.811 Y35.031 I.191 J.171 E.00559
G1 X117.811 Y35.337 E.0096
G1 X142.015 Y59.542 E1.07405
G1 X141.482 Y59.542 E.01672
G1 X117.811 Y35.871 E1.05038
G1 X117.811 Y36.405 E.01676
G1 X140.948 Y59.542 E1.02669
G1 X140.414 Y59.542 E.01676
G1 X117.811 Y36.938 E1.00301
G1 X117.811 Y37.472 E.01676
G1 X139.881 Y59.542 E.97934
G1 X139.347 Y59.542 E.01676
G1 X117.811 Y38.006 E.95564
G1 X117.811 Y38.539 E.01672
G1 X138.813 Y59.542 E.93197
G1 X138.28 Y59.542 E.01672
G1 X117.811 Y39.073 E.90829
G1 X117.811 Y39.607 E.01676
G1 X137.746 Y59.542 E.8846
G1 X137.212 Y59.542 E.01676
G1 X117.811 Y40.14 E.86093
G1 X117.811 Y40.674 E.01676
G1 X136.679 Y59.542 E.83725
G1 X136.145 Y59.542 E.01676
G1 X117.811 Y41.208 E.81356
G1 X117.811 Y41.741 E.01672
G1 X135.611 Y59.542 E.78988
G1 X135.078 Y59.542 E.01672
G1 X117.811 Y42.275 E.76621
G1 X117.811 Y42.809 E.01676
G1 X134.544 Y59.542 E.74251
G1 X134.01 Y59.542 E.01676
G1 X117.811 Y43.342 E.71884
G1 X117.811 Y43.876 E.01676
G1 X133.477 Y59.542 E.69517
G1 X132.943 Y59.542 E.01676
G1 X117.811 Y44.41 E.67147
G1 X117.811 Y44.943 E.01672
G1 X132.409 Y59.542 E.6478
G1 X131.876 Y59.542 E.01672
G1 X117.811 Y45.477 E.62412
G1 X117.811 Y46.011 E.01676
G1 X131.342 Y59.542 E.60043
G1 X130.808 Y59.542 E.01676
G1 X117.811 Y46.544 E.57675
G1 X117.811 Y47.078 E.01676
G1 X130.275 Y59.542 E.55308
G1 X129.741 Y59.542 E.01676
G1 X117.811 Y47.612 E.52938
G1 X117.811 Y48.145 E.01672
G1 X129.207 Y59.542 E.50571
G1 X128.674 Y59.542 E.01672
G1 X117.811 Y48.679 E.48204
G1 X117.811 Y49.213 E.01676
