; generated by PrusaSlicer 2.8.1+win64 on 2024-10-17 at 21:22:26 UTC


;
;

;
;

;
;

;
;
; 

; external perimeters extrusion width = 0.45mm
; perimeters extrusion width = 0.45mm
; infill extrusion width = 0.45mm
; solid infill extrusion width = 0.45mm
; top infill extrusion width = 0.40mm
; first layer extrusion width = 0.42mm

; external perimeters extrusion width = 0.45mm
; perimeters extrusion width = 0.45mm
; infill extrusion width = 0.45mm
; solid infill extrusion width = 0.45mm
; top infill extrusion width = 0.40mm
; first layer extrusion width = 0.42mm

; external perimeters extrusion width = 0.45mm
; perimeters extrusion width = 0.45mm
; infill extrusion width = 0.45mm
; solid infill extrusion width = 0.45mm
; top infill extrusion width = 0.40mm
; first layer extrusion width = 0.42mm

; external perimeters extrusion width = 0.45mm
; perimeters extrusion width = 0.45mm
; infill extrusion width = 0.45mm
; solid infill extrusion width = 0.45mm
; top infill extrusion width = 0.40mm
; first layer extrusion width = 0.42mm

M73 P0 R35
M73 Q0 S35
M201 X2500 Y2500 Z400 E5000 ; sets maximum accelerations, mm/sec^2
M203 X180 Y180 Z12 E80 ; sets maximum feedrates, mm / sec
M204 P2000 R1250 T2500 ; sets acceleration (P, T) and retract acceleration (R), mm/sec^2
M205 X8.00 Y8.00 Z2.00 E10.00 ; sets the jerk limits, mm/sec
M205 S0 T0 ; sets the minimum extruding and travel feed rate, mm/sec

M486 S0
M486 AHour Flap.stl
M486 S-1
M486 S1
M486 AHour Flap.stl
M486 S-1
M486 S2
M486 AHour Flap.stl
M486 S-1
M486 S3
M486 AHour Flap.stl
M486 S-1

;TYPE:Custom
M862.3 P "MINI" ; printer model check
G90 ; use absolute coordinates
M83 ; extruder relative mode
M104 S170 ; set extruder temp for bed leveling
M140 S60 ; set bed temp
M109 R170 ; wait for bed leveling temp
M190 S60 ; wait for bed temp
M204 T1250 ; set travel acceleration
G28 ; home all without mesh bed level
G29 ; mesh bed leveling 
M204 T2500 ; restore travel acceleration
M104 S215 ; set extruder temp
G92 E0
G1 Y-2 X179 F2400
G1 Z3 F720
M109 S215 ; wait for extruder temp

; intro line
G1 X170 F1000
G1 Z0.2 F720
G1 X110 E8 F900
G1 X40 E10 F700
G92 E0

M221 S95 ; set flow
G21 ; set units to millimeters
G90 ; use absolute coordinates
M83 ; use relative distances for extrusion

M900 K0.2 ; Filament gcode LA 1.5
; ; Filament gcode LA 1.0




M107
;LAYER_CHANGE
;Z:0.2
;HEIGHT:0.2
G1 E-3.2 F4200
G1 Z.4 F720
G1 X48.096 Y57.62 F9000
G1 Z.2 F720
G1 E3.2 F2400
M204 P600
;TYPE:Skirt/Brim
;WIDTH:0.42
G1 F1200
G3 X49.923 Y56.66 I3.141 J3.763 E.0652
G3 X51.579 Y56.412 I1.888 J6.942 E.05262
G1 X94.06 Y56.214 E1.33198
G1 X129.098 Y56.219 E1.09859
G3 X134.082 Y59.973 I-.004 J5.191 E.20988
G1 X134.191 Y60.738 E.02423
G1 X134.145 Y119.322 E1.83686
G1 X133.752 Y120.569 E.04099
M73 P1 R35
M73 Q1 S35
G1 X132.958 Y121.264 E.03309
G1 X129.456 Y123.067 E.1235
G1 X128.455 Y123.31 E.0323
G1 X51.847 Y123.219 E2.40199
G1 X50.85 Y122.976 E.03218
M73 P1 R34
M73 Q1 S34
G1 X47.348 Y121.173 E.1235
G1 X46.417 Y120.254 E.04102
G1 X46.161 Y119.227 E.03319
G1 X46.161 Y93.111 E.81885
G1 X46.342 Y61.123 E1.00298
G3 X48.05 Y57.658 I4.895 J.26 E.1245
M204 P1000
G1 E-2.24 F4200
;WIPE_START
G1 F7200
G1 X48.096 Y57.62 E-.03306
G3 X49.536 Y56.785 I3.142 J3.763 E-.92694
;WIPE_END
G1 Z.4 F720
M486 S2
G1 X91.766 Y118.508 F9000
G1 Z.2 F720
G1 E3.2 F2400
M204 P600
;TYPE:Perimeter
;WIDTH:0.469484
G1 F1200
G1 X93.597 Y118.506 E.06494
;WIDTH:0.47843
G1 X93.698 Y118.502 E.00366
M204 P1000
G1 E-2.24 F4200
;WIPE_START
G1 F7200
G1 X91.966 Y118.508 E-.96
;WIPE_END
G1 Z.4 F720
G1 X127.576 Y118.425 F9000
G1 Z.2 F720
G1 E3.2 F2400
M204 P600
;WIDTH:0.419999
G1 F1200
G2 X127.53 Y118.469 I.727 J.822 E.002
G2 X127.29 Y119.097 I.897 J.702 E.0214
G1 X127.29 Y119.957 E.02696
G1 X95.623 Y119.957 E.99289
G1 X95.623 Y119.097 E.02696
G2 X94.791 Y118.163 I-.971 J.027 E.04261
G2 X95.017 Y117.412 I-1.436 J-.841 E.02482
G1 X95.017 Y113.984 E.10748
G1 X94.933 Y113.513 E.015
G1 X94.685 Y113.076 E.01575
G2 X93.952 Y112.604 I-1.418 J1.396 E.02756
G1 X93.519 Y112.532 E.01376
G1 X92.121 Y112.532 E.04383
G1 X92.121 Y93.585 E.59407
G1 X92.139 Y93.07 E.01616
G1 X92.286 Y92.692 E.01272
G3 X92.986 Y92.085 I1.589 J1.127 E.02933
G3 X94.054 Y91.844 I1.189 J2.781 E.03452
G1 X128.851 Y91.848 E1.09103
G3 X129.827 Y92.034 I-.095 J3.16 E.03128
G1 X130.312 Y92.328 E.01778
G1 X130.627 Y92.692 E.01509
G3 X130.792 Y93.325 I-1.318 J.682 E.02068
G1 X130.792 Y112.532 E.60222
G1 X129.394 Y112.532 E.04383
G2 X128.546 Y112.79 I.323 J2.58 E.02793
G1 X128.231 Y113.073 E.01328
G1 X127.98 Y113.512 E.01586
G1 X127.896 Y113.986 E.01509
G1 X127.903 Y117.489 E.10983
G2 X128.121 Y118.165 I1.728 J-.185 E.02243
G2 X127.622 Y118.387 I.182 J1.082 E.01731
M204 P1000
G1 X127.622 Y118.387 F9000
G1 X127.848 Y118.708
M204 P600
G1 F1200
G1 X127.756 Y118.793 E.00393
G1 X127.667 Y119.097 E.00993
G1 X127.667 Y120.334 E.03879
G1 X95.246 Y120.334 E1.01654
G1 X95.246 Y119.097 E.03879
G2 X94.826 Y118.55 I-.612 J.035 E.02297
G1 X94.303 Y118.531 E.01641
;WIDTH:0.449215
G1 X94.001 Y118.517 E.01021
;WIDTH:0.47843
G1 X93.698 Y118.502 E.01099
G1 X93.95 Y118.38 E.01014
;WIDTH:0.449215
G1 X94.201 Y118.258 E.00943
;WIDTH:0.419999
G2 X94.64 Y117.412 I-.695 J-.897 E.03084
G1 X94.64 Y113.984 E.10748
G2 X94.394 Y113.316 I-1.316 J.104 E.0226
G1 X94.004 Y113.018 E.01539
G1 X93.519 Y112.909 E.01559
G1 X91.744 Y112.909 E.05565
G1 X91.744 Y93.251 E.61636
G1 X91.84 Y92.745 E.01615
M73 P2 R34
M73 Q2 S34
G1 X92.135 Y92.258 E.01785
G3 X93.5 Y91.523 I1.839 J1.777 E.04939
G1 X94.042 Y91.467 E.01708
G1 X128.851 Y91.471 E1.09141
G3 X130.555 Y92.039 I.019 J2.783 E.05734
G1 X130.951 Y92.496 E.01896
G3 X131.169 Y93.325 I-1.744 J.902 E.02709
G1 X131.169 Y112.909 E.61404
G1 X129.394 Y112.909 E.05565
G1 X128.828 Y113.06 E.01837
G2 X128.364 Y113.572 I.746 J1.143 E.0219
G1 X128.273 Y113.986 E.01329
G1 X128.28 Y117.488 E.1098
G2 X128.47 Y118.01 I1.346 J-.195 E.01754
G1 X128.783 Y118.296 E.01329
;WIDTH:0.46948
G1 X129.317 Y118.506 E.02035
G1 X129.065 Y118.522 E.00896
;WIDTH:0.438181
G1 X128.233 Y118.531 E.02735
;WIDTH:0.419999
G1 X127.966 Y118.598 E.00863
G1 X127.892 Y118.667 E.00317
M204 P1000
G1 E-2.24 F4200
;WIPE_START
G1 F7200
G1 X127.848 Y118.708 E-.03333
G1 X127.756 Y118.793 E-.06941
G1 X127.667 Y119.097 E-.17554
G1 X127.667 Y120.327 E-.68172
;WIPE_END
G1 Z.4 F720
G1 X131.147 Y118.508 F9000
G1 Z.2 F720
G1 E3.2 F2400
M204 P600
;WIDTH:0.46948
G1 F1200
G1 X129.317 Y118.506 E.06491
M204 P1000
G1 X129.317 Y118.506 F9000
G1 X128.088 Y118.993
M204 P600
;TYPE:External perimeter
;WIDTH:0.419999
G1 F1200
G2 X128.045 Y119.097 I.175 J.134 E.00357
G1 X128.045 Y120.711 E.05061
G1 X94.869 Y120.711 E1.04021
G1 X94.869 Y119.097 E.05061
G2 X94.68 Y118.908 I-.22 J.031 E.009
G1 X91.367 Y118.908 E.10388
G1 X91.367 Y118.11 E.02502
G1 X93.596 Y118.105 E.06989
G2 X94.082 Y117.862 I-.168 J-.946 E.01727
G2 X94.263 Y117.412 I-.668 J-.529 E.01542
G1 X94.263 Y113.984 E.10748
G2 X94.122 Y113.583 I-.854 J.074 E.01347
G1 X93.865 Y113.373 E.01041
G1 X93.519 Y113.286 E.01119
G1 X91.367 Y113.286 E.06747
G1 X91.367 Y93.432 E.62251
G1 X91.394 Y92.93 E.01576
G3 X91.849 Y92.011 I2.574 J.701 E.03235
G3 X92.788 Y91.339 I2.483 J2.477 E.03637
G3 X94.029 Y91.09 I1.454 J4.032 E.03983
G1 X128.851 Y91.094 E1.09182
G3 X130.125 Y91.339 I-.089 J3.9 E.04087
G3 X131.064 Y92.011 I-1.542 J3.146 E.03637
G3 X131.519 Y92.93 I-2.119 J1.62 E.03235
G1 X131.547 Y93.325 E.01242
G1 X131.547 Y113.286 E.62586
G1 X129.394 Y113.286 E.06751
G2 X128.831 Y113.534 I.111 J1.015 E.01959
G2 X128.651 Y113.985 I.668 J.529 E.01544
G1 X128.657 Y117.487 E.1098
G2 X128.937 Y117.952 I.797 J-.164 E.01735
G1 X129.318 Y118.105 E.01287
G1 X131.547 Y118.11 E.06989
G1 X131.547 Y118.908 E.02502
G1 X128.233 Y118.908 E.10391
G2 X128.13 Y118.951 I.03 J.219 E.00354
M204 P1000
G1 E-2.24 F4200
;WIPE_START
G1 F7200
G1 X128.088 Y118.993 E-.03292
G2 X128.045 Y119.097 I.176 J.134 E-.06306
G1 X128.045 Y120.656 E-.86402
;WIPE_END
G1 Z.4 F720
G1 X130.607 Y93.103 F9000
G1 Z.2 F720
G1 E3.2 F2400
M204 P600
;TYPE:Solid infill
;WIDTH:0.422944
G1 F1200
G2 X129.911 Y92.459 I-3.441 J3.019 E.03002
G2 X129.171 Y92.205 I-1.015 J1.755 E.02488
G1 X130.453 Y93.487 E.05729
G1 X130.453 Y94.024 E.01697
G1 X128.616 Y92.187 E.08209
G1 X128.079 Y92.187 E.01697
G1 X130.453 Y94.562 E.10611
G1 X130.453 Y95.099 E.01697
G1 X127.541 Y92.187 E.13013
G1 X127.004 Y92.187 E.01697
G1 X130.453 Y95.637 E.15415
G1 X130.453 Y96.174 E.01697
G1 X126.466 Y92.187 E.17817
G1 X125.929 Y92.187 E.01697
G1 X130.453 Y96.712 E.20219
G1 X130.453 Y97.249 E.01697
G1 X125.391 Y92.187 E.22621
G1 X124.854 Y92.187 E.01697
G1 X130.453 Y97.786 E.25021
G1 X130.453 Y98.324 E.017
G1 X124.316 Y92.187 E.27425
G1 X123.779 Y92.187 E.01697
G1 X130.453 Y98.861 E.29825
G1 X130.453 Y99.399 E.017
G1 X123.241 Y92.187 E.32229
G1 X122.704 Y92.187 E.01697
G1 X130.453 Y99.936 E.34629
G1 X130.453 Y100.474 E.017
G1 X122.166 Y92.187 E.37033
G1 X121.629 Y92.187 E.01697
G1 X130.453 Y101.011 E.39433
G1 X130.453 Y101.548 E.01697
G1 X121.091 Y92.187 E.41835
G1 X120.554 Y92.187 E.01697
G1 X130.453 Y102.086 E.44237
G1 X130.453 Y102.623 E.01697
G1 X120.016 Y92.186 E.46641
G1 X119.479 Y92.186 E.01697
G1 X130.453 Y103.161 E.49043
G1 X130.453 Y103.698 E.01697
M73 P3 R34
M73 Q3 S34
G1 X118.941 Y92.186 E.51445
G1 X118.404 Y92.186 E.01697
G1 X130.453 Y104.236 E.53847
G1 X130.453 Y104.773 E.01697
G1 X117.866 Y92.186 E.56249
G1 X117.329 Y92.186 E.01697
G1 X130.453 Y105.31 E.58648
G1 X130.453 Y105.848 E.017
G1 X116.791 Y92.186 E.61053
G1 X116.254 Y92.186 E.01697
G1 X130.453 Y106.385 E.63452
G1 X130.453 Y106.923 E.017
G1 X115.716 Y92.186 E.65857
G1 X115.179 Y92.186 E.01697
G1 X130.453 Y107.46 E.68256
G1 X130.453 Y107.998 E.017
G1 X114.641 Y92.186 E.70661
G1 X114.104 Y92.186 E.01697
G1 X130.453 Y108.535 E.7306
G1 X130.453 Y109.073 E.017
G1 X113.566 Y92.186 E.75464
G1 X113.029 Y92.186 E.01697
G1 X130.453 Y109.61 E.77864
G1 X130.453 Y110.147 E.01697
G1 X112.491 Y92.186 E.80266
G1 X111.954 Y92.186 E.01697
G1 X130.453 Y110.685 E.82668
G1 X130.453 Y111.222 E.01697
G1 X111.416 Y92.186 E.8507
G1 X110.879 Y92.185 E.01697
G1 X130.453 Y111.76 E.87474
G1 X130.453 Y112.193 E.01368
G1 X130.349 Y112.193 E.00329
G1 X110.341 Y92.185 E.89412
G1 X109.804 Y92.185 E.01697
G1 X129.811 Y112.193 E.89409
G1 X129.287 Y112.206 E.01656
M73 P4 R34
M73 Q4 S34
G1 X109.266 Y92.185 E.8947
G1 X108.729 Y92.185 E.01697
M73 P4 R33
M73 Q4 S33
G1 X128.843 Y112.3 E.89887
G1 X128.456 Y112.45 E.01312
G1 X108.191 Y92.185 E.9056
G1 X107.654 Y92.185 E.01697
G1 X128.149 Y112.68 E.91588
G1 X127.894 Y112.963 E.01204
G1 X107.116 Y92.185 E.92853
G1 X106.579 Y92.185 E.01697
G1 X127.702 Y113.308 E.94394
G2 X127.59 Y113.733 I1.363 J.589 E.01394
G1 X106.041 Y92.185 E.96296
G1 X105.504 Y92.185 E.01697
G1 X127.558 Y114.238 E.98552
G1 X127.558 Y114.777 E.01703
G1 X104.966 Y92.185 E1.00959
G1 X104.429 Y92.185 E.01697
G1 X127.559 Y115.315 E1.03363
G1 X127.56 Y115.854 E.01703
G1 X103.891 Y92.185 E1.05772
G1 X103.354 Y92.185 E.01697
G1 X127.561 Y116.392 E1.08176
G1 X127.562 Y116.931 E.01703
G1 X102.816 Y92.185 E1.10585
G1 X102.279 Y92.185 E.01697
G1 X127.563 Y117.469 E1.12989
G2 X127.66 Y117.952 I1.353 J-.02 E.01565
M73 P5 R33
M73 Q5 S33
G1 X127.565 Y118.008 E.00348
G1 X101.741 Y92.184 E1.15402
G1 X101.204 Y92.184 E.01697
G1 X127.27 Y118.251 E1.16486
G2 X127.065 Y118.583 I.922 J.797 E.01238
G1 X100.666 Y92.184 E1.17972
G1 X100.129 Y92.184 E.01697
G1 X126.962 Y119.018 E1.19913
G1 X126.951 Y119.544 E.01662
G1 X99.591 Y92.184 E1.22266
G1 X99.054 Y92.184 E.01697
G1 X126.487 Y119.618 E1.22595
G1 X125.95 Y119.618 E.01697
G1 X98.516 Y92.184 E1.22597
G1 X97.979 Y92.184 E.01697
G1 X125.413 Y119.618 E1.22597
G1 X124.875 Y119.618 E.017
G1 X97.442 Y92.184 E1.22595
G1 X96.904 Y92.184 E.017
G1 X124.338 Y119.618 E1.22597
G1 X123.8 Y119.618 E.017
G1 X96.367 Y92.184 E1.22595
G1 X95.829 Y92.184 E.017
M73 P6 R33
M73 Q6 S33
G1 X123.263 Y119.618 E1.22597
G1 X122.725 Y119.618 E.017
G1 X95.292 Y92.184 E1.22595
G1 X94.754 Y92.184 E.017
G1 X122.188 Y119.618 E1.22597
G1 X121.651 Y119.618 E.01697
G1 X94.217 Y92.184 E1.22597
G1 X93.707 Y92.212 E.01614
G1 X121.113 Y119.618 E1.22472
G1 X120.576 Y119.618 E.01697
G1 X93.283 Y92.325 E1.21967
G1 X92.931 Y92.51 E.01257
G1 X120.038 Y119.618 E1.21138
G1 X119.501 Y119.618 E.01697
G1 X92.651 Y92.768 E1.19987
G2 X92.475 Y93.129 I.665 J.547 E.01281
G1 X118.963 Y119.618 E1.18372
G1 X118.426 Y119.618 E.01697
M73 P6 R32
M73 Q6 S32
G1 X92.46 Y93.652 E1.16037
G1 X92.46 Y94.189 E.01697
M73 P7 R32
M73 Q7 S32
G1 X117.889 Y119.618 E1.13637
G1 X117.351 Y119.618 E.017
G1 X92.46 Y94.727 E1.11233
G1 X92.46 Y95.264 E.01697
G1 X116.814 Y119.618 E1.08833
G1 X116.276 Y119.618 E.017
G1 X92.46 Y95.802 E1.06429
G1 X92.46 Y96.339 E.01697
G1 X115.739 Y119.618 E1.04029
G1 X115.201 Y119.618 E.017
G1 X92.46 Y96.876 E1.01627
G1 X92.46 Y97.414 E.017
G1 X114.664 Y119.618 E.99225
G1 X114.126 Y119.618 E.017
G1 X92.46 Y97.951 E.96823
G1 X92.46 Y98.489 E.017
G1 X113.589 Y119.618 E.94421
G1 X113.052 Y119.618 E.01697
G1 X92.46 Y99.026 E.92021
G1 X92.46 Y99.564 E.017
G1 X112.514 Y119.618 E.89617
G1 X111.977 Y119.618 E.01697
G1 X92.46 Y100.101 E.87217
G1 X92.46 Y100.638 E.01697
G1 X111.439 Y119.618 E.84815
G1 X110.902 Y119.618 E.01697
G1 X92.46 Y101.176 E.82413
G1 X92.46 Y101.713 E.01697
M73 P8 R32
M73 Q8 S32
G1 X110.364 Y119.618 E.80011
G1 X109.827 Y119.618 E.01697
G1 X92.46 Y102.251 E.77609
G1 X92.46 Y102.788 E.01697
G1 X109.29 Y119.618 E.7521
G1 X108.752 Y119.618 E.017
G1 X92.46 Y103.326 E.72806
G1 X92.46 Y103.863 E.01697
G1 X108.215 Y119.618 E.70406
G1 X107.677 Y119.618 E.017
G1 X92.46 Y104.401 E.68002
G1 X92.46 Y104.938 E.01697
G1 X107.14 Y119.618 E.65602
G1 X106.602 Y119.618 E.017
G1 X92.46 Y105.475 E.632
G1 X92.46 Y106.013 E.017
G1 X106.065 Y119.618 E.60798
G1 X105.528 Y119.618 E.01697
G1 X92.46 Y106.55 E.58398
G1 X92.46 Y107.088 E.017
G1 X104.99 Y119.618 E.55994
G1 X104.453 Y119.618 E.01697
G1 X92.46 Y107.625 E.53594
G1 X92.46 Y108.163 E.017
G1 X103.915 Y119.618 E.5119
G1 X103.378 Y119.618 E.01697
G1 X92.46 Y108.7 E.4879
G1 X92.46 Y109.237 E.01697
G1 X102.84 Y119.618 E.46388
G1 X102.303 Y119.618 E.01697
G1 X92.46 Y109.775 E.43986
G1 X92.46 Y110.312 E.01697
G1 X101.765 Y119.618 E.41584
G1 X101.228 Y119.618 E.01697
G1 X95.321 Y113.71 E.26399
G2 X94.723 Y112.647 I-1.648 J.227 E.03946
G2 X93.843 Y112.233 I-1.182 J1.369 E.03111
G1 X92.46 Y110.85 E.0618
G1 X92.46 Y111.387 E.01697
G1 X93.266 Y112.193 E.03602
G1 X92.728 Y112.193 E.017
G1 X92.29 Y111.755 E.01957
M204 P1000
G1 E-2.24 F4200
;WIPE_START
G1 F7200
G1 X92.728 Y112.193 E-.34326
G1 X93.266 Y112.193 E-.29814
G1 X92.86 Y111.787 E-.3186
;WIPE_END
G1 Z.4 F720
G1 X95.186 Y114.114 F9000
G1 Z.2 F720
G1 E3.2 F2400
M204 P600
G1 F1200
G1 X100.691 Y119.618 E.24598
G1 X100.153 Y119.618 E.017
G1 X95.356 Y114.821 E.21437
G1 X95.356 Y115.358 E.01697
G1 X99.616 Y119.618 E.19037
G1 X99.078 Y119.618 E.017
G1 X95.356 Y115.896 E.16633
G1 X95.356 Y116.433 E.01697
G1 X98.541 Y119.618 E.14233
G1 X98.003 Y119.618 E.017
M73 P9 R32
M73 Q9 S32
G1 X95.356 Y116.97 E.11831
G1 X95.346 Y117.498 E.01669
G1 X97.466 Y119.618 E.09474
G1 X96.929 Y119.618 E.01697
G1 X95.124 Y117.814 E.08064
M204 P1000
G1 X95.124 Y117.814 F9000
G1 X95.776 Y119.003
M204 P600
G1 F1200
G1 X96.561 Y119.787 E.03506
M204 P1000
G1 E-2.24 F4200
;WIPE_START
G1 F7200
G1 X95.776 Y119.003 E-.61482
;WIPE_END
G1 E-.34518 F4200
G1 Z.4 F720
M486 S-1
M486 S3
G1 X91.821 Y86.231 F9000
G1 Z.2 F720
G1 E3.2 F2400
M204 P600
;TYPE:Perimeter
;WIDTH:0.469484
G1 F1200
G1 X93.652 Y86.229 E.06494
;WIDTH:0.47843
G1 X93.753 Y86.225 E.00366
M204 P1000
G1 E-2.24 F4200
;WIPE_START
G1 F7200
G1 X92.021 Y86.23 E-.96
;WIPE_END
G1 Z.4 F720
G1 X127.631 Y86.148 F9000
G1 Z.2 F720
G1 E3.2 F2400
M204 P600
;WIDTH:0.419999
G1 F1200
G2 X127.585 Y86.191 I.727 J.822 E.00197
G2 X127.345 Y86.819 I.896 J.702 E.0214
G1 X127.345 Y87.68 E.027
G1 X95.678 Y87.68 E.99289
G1 X95.678 Y86.819 E.027
G2 X94.846 Y85.885 I-.971 J.028 E.04261
G2 X95.072 Y85.134 I-1.436 J-.841 E.02482
G1 X95.072 Y81.707 E.10745
G1 X94.988 Y81.235 E.01503
G1 X94.74 Y80.799 E.01573
G2 X94.007 Y80.326 I-1.418 J1.395 E.02758
G1 X93.574 Y80.255 E.01376
