; generated by PrusaSlicer 2.8.1+win64 on 2024-10-17 at 21:36:54 UTC


;
;

;
;

;
;

;
;
; 

; external perimeters extrusion width = 0.45mm
; perimeters extrusion width = 0.45mm
; infill extrusion width = 0.45mm
; solid infill extrusion width = 0.45mm
; top infill extrusion width = 0.40mm
; first layer extrusion width = 0.42mm

; external perimeters extrusion width = 0.45mm
; perimeters extrusion width = 0.45mm
; infill extrusion width = 0.45mm
; solid infill extrusion width = 0.45mm
; top infill extrusion width = 0.40mm
; first layer extrusion width = 0.42mm

; external perimeters extrusion width = 0.45mm
; perimeters extrusion width = 0.45mm
; infill extrusion width = 0.45mm
; solid infill extrusion width = 0.45mm
; top infill extrusion width = 0.40mm
; first layer extrusion width = 0.42mm

; external perimeters extrusion width = 0.45mm
; perimeters extrusion width = 0.45mm
; infill extrusion width = 0.45mm
; solid infill extrusion width = 0.45mm
; top infill extrusion width = 0.40mm
; first layer extrusion width = 0.42mm

M73 P0 R60
M73 Q0 S60
M201 X2500 Y2500 Z400 E5000 ; sets maximum accelerations, mm/sec^2
M203 X180 Y180 Z12 E80 ; sets maximum feedrates, mm / sec
M204 P2000 R1250 T2500 ; sets acceleration (P, T) and retract acceleration (R), mm/sec^2
M205 X8.00 Y8.00 Z2.00 E10.00 ; sets the jerk limits, mm/sec
M205 S0 T0 ; sets the minimum extruding and travel feed rate, mm/sec

M486 S0
M486 AMiddle Gear.stl
M486 S-1
M486 S1
M486 ACrank Gear.stl
M486 S-1
M486 S2
M486 AMiddle Gear Shaft.stl
M486 S-1
M486 S3
M486 AMiddle Gear Shaft Cap.stl
M486 S-1

;TYPE:Custom
M862.3 P "MINI" ; printer model check
G90 ; use absolute coordinates
M83 ; extruder relative mode
M104 S170 ; set extruder temp for bed leveling
M140 S60 ; set bed temp
M109 R170 ; wait for bed leveling temp
M190 S60 ; wait for bed temp
M204 T1250 ; set travel acceleration
G28 ; home all without mesh bed level
G29 ; mesh bed leveling 
M204 T2500 ; restore travel acceleration
M104 S215 ; set extruder temp
G92 E0
G1 Y-2 X179 F2400
G1 Z3 F720
M109 S215 ; wait for extruder temp

; intro line
G1 X170 F1000
G1 Z0.2 F720
G1 X110 E8 F900
G1 X40 E10 F700
G92 E0

M221 S95 ; set flow
G21 ; set units to millimeters
G90 ; use absolute coordinates
M83 ; use relative distances for extrusion

M900 K0.2 ; Filament gcode LA 1.5
; ; Filament gcode LA 1.0




M107
;LAYER_CHANGE
;Z:0.2
;HEIGHT:0.2
G1 E-3.2 F4200
G1 Z.4 F720
G1 X49.388 Y87.278 F9000
G1 Z.2 F720
G1 E3.2 F2400
M204 P600
;TYPE:Skirt/Brim
;WIDTH:0.42
G1 F1200
G3 X53.498 Y86.218 I4.026 J7.114 E.13463
G1 X104.62 Y90.753 E1.60919
G1 X108.91 Y92.097 E.14096
G1 X109.989 Y92.72 E.03907
G1 X113.299 Y95.76 E.14091
G1 X113.734 Y96.441 E.02534
G1 X115.378 Y100.132 E.12669
G1 X115.639 Y101.359 E.03933
G1 X115.639 Y105.399 E.12667
G1 X115.378 Y106.625 E.0393
G1 X113.734 Y110.316 E.12669
G1 X113.248 Y111.063 E.02794
G1 X98.882 Y129.176 E.72486
G3 X91.887 Y131.564 I-5.52 J-4.73 E.24311
G1 X70.516 Y125.291 E.69834
G3 X66.17 Y123.709 I13.181 J-42.986 E.14508
G1 X62.721 Y121.145 E.13475
G1 X62.221 Y120.665 E.02173
G1 X46.643 Y98.973 E.83735
G3 X49.336 Y87.308 I6.771 J-4.581 E.42118
M204 P1000
G1 E-2.24 F4200
;WIPE_START
G1 F7200
G1 X49.388 Y87.278 E-.03327
G3 X50.917 Y86.609 I4.026 J7.114 E-.92673
;WIPE_END
G1 Z.4 F720
M486 S2
G1 X48.607 Y94.792 F9000
G1 Z.2 F720
G1 E3.2 F2400
M204 P600
;TYPE:Perimeter
;WIDTH:0.419999
G1 F1200
G3 X49.271 Y91.907 I4.827 J-.409 E.09433
G3 X52.687 Y89.628 I4.144 J2.51 E.13296
G3 X56.615 Y90.819 I.689 J4.797 E.13289
G3 X58.188 Y94.616 I-3.269 J3.579 E.13307
G3 X55.857 Y98.501 I-4.832 J-.258 E.14783
G3 X51.769 Y98.901 I-2.472 J-4.169 E.13299
G3 X48.865 Y95.992 I1.657 J-4.558 E.13309
G3 X48.613 Y94.852 I4.569 J-1.609 E.0367
M204 P1000
G1 X48.613 Y94.852 F9000
G1 X48.234 Y94.848
M204 P600
G1 F1200
G3 X58.564 Y94.124 I5.158 J-.469 E.51676
G1 X58.564 Y94.635 E.01602
G3 X48.24 Y94.908 I-5.172 J-.256 E.48544
M204 P1000
G1 X48.24 Y94.908 F9000
G1 X47.861 Y94.903
M204 P600
;TYPE:External perimeter
G1 F1200
G3 X58.941 Y94.105 I5.531 J-.524 E.55488
G1 X58.941 Y94.653 E.01718
G3 X47.867 Y94.963 I-5.549 J-.274 E.52038
M73 P0 R59
M73 Q0 S59
M204 P1000
G1 E-2.24 F4200
;WIPE_START
G1 F7200
G1 X47.861 Y94.903 E-.03342
G3 X47.955 Y93.24 I5.531 J-.52 E-.92658
;WIPE_END
G1 Z.4 F720
G1 X55.664 Y90.339 F9000
G1 Z.2 F720
G1 E3.2 F2400
M204 P600
;TYPE:Solid infill
;WIDTH:0.431125
G1 F1200
G3 X56.845 Y91.543 I-21.092 J21.869 E.05445
G3 X57.561 Y92.786 I-3.488 J2.84 E.0465
G1 X54.983 Y90.208 E.11769
G2 X54.215 Y89.989 I-1.558 J4.002 E.02582
G1 X57.781 Y93.554 E.16276
G3 X57.849 Y94.172 I-3.976 J.756 E.02009
G1 X53.597 Y89.92 E.1941
G2 X53.055 Y89.926 I-.231 J3.457 E.01751
G1 X57.843 Y94.715 E.21859
G1 X57.781 Y95.202 E.01585
G1 X52.568 Y89.988 E.238
G1 X52.124 Y90.094 E.01473
G1 X57.675 Y95.644 E.25338
G1 X57.533 Y96.051 E.01391
G1 X51.717 Y90.236 E.26548
G1 X51.341 Y90.409 E.01336
G1 X57.359 Y96.427 E.27472
G1 X57.158 Y96.775 E.01297
G1 X50.994 Y90.61 E.28141
G1 X50.671 Y90.837 E.01274
G1 X56.931 Y97.097 E.28577
G1 X56.681 Y97.396 E.01258
G1 X50.373 Y91.088 E.28796
G1 X50.099 Y91.363 E.01253
G1 X56.407 Y97.67 E.28794
G1 X56.108 Y97.921 E.0126
M73 P1 R59
M73 Q1 S59
G1 X49.848 Y91.661 E.28577
G1 X49.621 Y91.983 E.01272
G1 X55.786 Y98.148 E.28143
G1 X55.438 Y98.348 E.01296
G1 X49.42 Y92.331 E.2747
G1 X49.246 Y92.706 E.01334
G1 X55.062 Y98.522 E.2655
G1 X54.656 Y98.664 E.01388
G1 X49.104 Y93.113 E.25343
G1 X48.998 Y93.556 E.0147
G1 X54.212 Y98.77 E.23802
G1 X53.725 Y98.832 E.01585
G1 X48.936 Y94.043 E.21862
G1 X48.93 Y94.586 E.01753
G1 X53.183 Y98.839 E.19415
G3 X52.565 Y98.77 I.138 J-4.046 E.02009
G1 X48.998 Y95.203 E.16283
G2 X49.218 Y95.972 I4.336 J-.823 E.02585
G1 X51.797 Y98.551 E.11773
G3 X50.312 Y97.614 I1.541 J-4.092 E.05707
G1 X49.35 Y96.653 E.04389
M204 P1000
G1 E-2.24 F4200
;WIPE_START
G1 F7200
G1 X50.312 Y97.614 E-.75354
G2 X50.591 Y97.86 I3.028 J-3.154 E-.20646
;WIPE_END
G1 Z.4 F720
M486 S-1
M486 S1
G1 X73.588 Y99.144 F9000
G1 Z.2 F720
G1 E3.2 F2400
M204 P600
;TYPE:Perimeter
;WIDTH:0.419999
G1 F1200
G2 X73.759 Y99.176 I.615 J-2.821 E.00546
G1 X74.421 Y99.156 E.02077
G2 X75.195 Y98.833 I-.712 J-2.796 E.02639
G1 X75.633 Y98.462 E.018
G1 X75.818 Y98.189 E.01034
G2 X75.964 Y98.642 I1.814 J-.335 E.01496
G1 X76.305 Y99.169 E.01968
G2 X77.019 Y99.685 I2.073 J-2.116 E.02772
G1 X77.664 Y99.873 E.02107
G2 X78.498 Y99.805 I.185 J-2.889 E.02633
G1 X79.031 Y99.589 E.01803
G1 X79.291 Y99.386 E.01034
G2 X79.291 Y99.862 I1.834 J.24 E.01497
G1 X79.452 Y100.466 E.0196
G2 X79.973 Y101.18 I2.607 J-1.356 E.02782
G1 X80.528 Y101.557 E.02104
G2 X81.34 Y101.75 I1.07 J-2.693 E.02626
G1 X81.912 Y101.709 E.01798
G1 X82.224 Y101.597 E.01039
G2 X82.077 Y102.049 I1.666 J.793 E.01494
G1 X82.044 Y102.675 E.01966
G2 X82.32 Y103.513 I2.897 J-.489 E.02777
G1 X82.729 Y104.043 E.02099
G2 X83.443 Y104.478 I1.878 J-2.283 E.0263
G1 X84.001 Y104.616 E.01802
G1 X84.331 Y104.605 E.01035
G2 X84.051 Y104.989 I1.338 J1.27 E.01494
G1 X83.826 Y105.574 E.01965
G2 X83.84 Y106.494 I2.772 J.418 E.02898
G1 X84.055 Y107.088 E.01981
G2 X84.602 Y107.724 I2.435 J-1.541 E.0264
G1 X85.09 Y108.027 E.01801
G1 X85.406 Y108.118 E.01031
G2 X85.02 Y108.397 I.881 J1.62 E.01498
G1 X84.625 Y108.883 E.01964
G2 X84.355 Y109.731 I2.598 J1.297 E.02801
G1 X84.375 Y110.394 E.0208
G2 X84.7 Y111.168 I2.848 J-.739 E.02641
G1 X85.07 Y111.607 E.018
G1 X85.342 Y111.79 E.01028
G2 X84.889 Y111.938 I.338 J1.814 E.01498
G1 X84.364 Y112.276 E.01958
G2 X83.846 Y112.992 I2.147 J2.099 E.02781
G1 X83.658 Y113.636 E.02103
G2 X83.726 Y114.475 I2.907 J.186 E.02649
G1 X83.942 Y115.003 E.01789
G1 X84.145 Y115.264 E.01037
G2 X83.669 Y115.263 I-.242 J1.844 E.01497
G1 X83.064 Y115.425 E.01964
G2 X82.351 Y115.947 I1.356 J2.599 E.02781
G1 X81.975 Y116.499 E.02094
G2 X81.781 Y117.312 I2.697 J1.072 E.0263
G1 X81.821 Y117.883 E.01795
G1 X81.934 Y118.197 E.01046
G2 X81.478 Y118.049 I-.824 J1.758 E.01507
G1 X80.856 Y118.016 E.01953
G2 X80.019 Y118.291 I.494 J2.919 E.02773
G1 X79.488 Y118.701 E.02103
G2 X79.053 Y119.416 I2.243 J1.857 E.02633
G1 X78.915 Y119.974 E.01802
G1 X78.926 Y120.304 E.01035
G2 X78.541 Y120.023 I-1.27 J1.338 E.01499
G1 X77.956 Y119.798 E.01965
G2 X77.068 Y119.803 I-.428 J2.909 E.02795
G1 X76.443 Y120.027 E.02082
G2 X75.807 Y120.573 I1.547 J2.443 E.02637
G1 X75.504 Y121.061 E.01801
G1 X75.413 Y121.378 E.01034
G2 X75.134 Y120.992 I-1.63 J.887 E.01497
G1 X74.647 Y120.598 E.01964
G2 X73.799 Y120.327 I-1.295 J2.594 E.02802
G1 X73.138 Y120.347 E.02073
G2 X72.365 Y120.67 I.76 J2.905 E.02635
G1 X71.926 Y121.04 E.018
G1 X71.741 Y121.314 E.01037
G2 X71.595 Y120.861 I-1.815 J.335 E.01496
G1 X71.254 Y120.336 E.01963
G2 X70.538 Y119.819 I-2.114 J2.176 E.02779
G1 X69.897 Y119.632 E.02094
G2 X69.057 Y119.698 I-.194 J2.865 E.02651
G1 X68.527 Y119.915 E.01796
G1 X68.267 Y120.118 E.01034
G2 X68.268 Y119.641 I-1.835 J-.242 E.015
G1 X68.106 Y119.036 E.01964
G2 X67.587 Y118.325 I-2.617 J1.367 E.0277
G1 X67.03 Y117.946 E.02112
G2 X66.218 Y117.753 I-1.069 J2.689 E.02626
G1 X65.646 Y117.794 E.01798
G1 X65.335 Y117.907 E.01037
G2 X65.482 Y117.455 I-1.667 J-.793 E.01494
G1 X65.514 Y116.828 E.01968
G2 X65.234 Y115.983 I-2.856 J.479 E.02802
G1 X64.83 Y115.46 E.02072
G2 X64.115 Y115.025 I-1.878 J2.282 E.02633
G1 X63.558 Y114.887 E.01799
G1 X63.227 Y114.899 E.01039
G2 X63.508 Y114.513 I-1.347 J-1.277 E.01501
G1 X63.732 Y113.93 E.01958
G2 X63.719 Y113.011 I-2.778 J-.419 E.02895
G1 X63.504 Y112.415 E.01987
G2 X62.959 Y111.781 I-2.45 J1.552 E.02631
G1 X62.471 Y111.477 E.01803
G1 X62.153 Y111.385 E.01038
G2 X62.538 Y111.106 I-.883 J-1.625 E.01495
G1 X62.933 Y110.62 E.01964
G2 X63.204 Y109.772 I-2.583 J-1.293 E.02802
G1 X63.183 Y109.109 E.0208
G2 X62.861 Y108.338 I-2.868 J.746 E.02629
G1 X62.491 Y107.899 E.018
G1 X62.217 Y107.713 E.01038
G2 X62.67 Y107.567 I-.343 J-1.835 E.01496
G1 X63.195 Y107.227 E.01961
G2 X63.712 Y106.512 I-2.146 J-2.098 E.02777
G1 X63.901 Y105.867 E.02107
G2 X63.833 Y105.033 I-2.889 J-.186 E.02633
G1 X63.617 Y104.5 E.01803
G1 X63.413 Y104.24 E.01036
G2 X63.89 Y104.24 I.241 J-1.834 E.015
G1 X64.495 Y104.078 E.01964
G2 X65.208 Y103.556 I-1.355 J-2.597 E.02781
G1 X65.584 Y103.003 E.02097
G2 X65.778 Y102.191 I-2.694 J-1.07 E.02627
G1 X65.737 Y101.619 E.01798
G1 X65.624 Y101.306 E.01043
G2 X66.077 Y101.454 I.798 J-1.679 E.01498
G1 X66.703 Y101.487 E.01966
G2 X67.557 Y101.2 I-.465 J-2.799 E.02837
G1 X68.071 Y100.802 E.02038
G2 X68.505 Y100.089 I-2.288 J-1.881 E.02626
G1 X68.644 Y99.532 E.018
G1 X68.632 Y99.199 E.01045
G2 X69.022 Y99.483 I1.303 J-1.377 E.01517
G1 X69.602 Y99.705 E.01947
G2 X70.52 Y99.691 I.418 J-2.778 E.02892
G1 X71.115 Y99.476 E.01984
G2 X71.75 Y98.932 I-1.551 J-2.45 E.02631
G1 X72.054 Y98.443 E.01805
G1 X72.145 Y98.126 E.01034
G2 X72.424 Y98.51 I1.621 J-.881 E.01492
G1 X72.911 Y98.905 E.01966
G2 X73.529 Y99.131 I1.292 J-2.582 E.02068
M204 P1000
G1 X73.529 Y99.131 F9000
G1 X73.661 Y98.77
M204 P600
G1 F1200
G2 X73.966 Y98.802 I.364 J-1.982 E.00962
G2 X74.855 Y98.606 I.017 J-2.037 E.02879
G2 X75.418 Y98.122 I-1.516 J-2.331 E.02335
G2 X75.834 Y97.12 I-2.317 J-1.55 E.03424
G3 X76.17 Y97.158 I.159 J.102 E.01317
G2 X76.216 Y98.263 I2.834 J.435 E.0349
G2 X76.58 Y98.91 I2.556 J-1.011 E.02335
G2 X77.142 Y99.328 I1.883 J-1.945 E.02202
G1 X77.655 Y99.493 E.0169
G2 X78.364 Y99.453 I.203 J-2.698 E.02233
G1 X78.842 Y99.262 E.01614
G1 X79.255 Y98.917 E.01687
G1 X79.618 Y98.402 E.01976
G3 X79.875 Y98.36 I.153 J.129 E.00889
G1 X79.945 Y98.511 E.00522
G2 X79.647 Y99.579 I2.563 J1.29 E.03499
G2 X79.793 Y100.306 I2.744 J-.173 E.02332
G2 X80.35 Y100.991 I1.799 J-.892 E.02791
G2 X81.201 Y101.367 I1.234 J-1.644 E.02943
G2 X81.941 Y101.307 I.15 J-2.732 E.02335
G1 X82.63 Y100.985 E.02385
;WIDTH:0.412271
G3 X82.924 Y100.713 I.467 J.21 E.01264
G3 X83.13 Y100.905 I-.022 J.23 E.0093
G1 X83.075 Y101.021 E.00394
;WIDTH:0.414897
G1 X82.748 Y101.401 E.01551
;WIDTH:0.419999
G2 X82.452 Y102.081 I2.29 J1.4 E.02333
G1 X82.418 Y102.628 E.01718
G2 X82.766 Y103.493 I2.025 J-.31 E.02949
G2 X83.429 Y104.07 I1.615 J-1.186 E.02778
G2 X84.152 Y104.242 I.99 J-2.566 E.02337
G2 X85.205 Y103.99 I-.105 J-2.768 E.03417
G3 X85.373 Y104.283 I.013 J.187 E.01319
G2 X84.506 Y104.97 I1.311 J2.546 E.0349
G2 X84.197 Y105.645 I2.313 J1.468 E.02335
G2 X84.255 Y106.561 I2.041 J.33 E.02902
G2 X84.712 Y107.331 I1.922 J-.621 E.02831
G2 X85.349 Y107.718 I1.706 J-2.094 E.02344
;WIDTH:0.449914
G2 X86.48 Y107.83 I.852 J-2.814 E.03871
G1 X86.559 Y107.954 E.00498
G3 X86.491 Y108.119 I-.288 J-.022 E.00614
G1 X85.972 Y108.243 E.01806
G1 X85.461 Y108.518 E.01964
;WIDTH:0.419999
G2 X84.956 Y109.065 I1.775 J2.145 E.02341
G2 X84.728 Y109.939 I1.794 J.934 E.02856
G2 X84.926 Y110.828 I2.022 J.017 E.0288
G2 X85.412 Y111.392 I2.269 J-1.463 E.02342
G2 X86.409 Y111.807 I1.551 J-2.324 E.03407
G3 X86.373 Y112.142 I-.099 J.159 E.01313
G2 X85.271 Y112.188 I-.435 J2.832 E.0348
G2 X84.622 Y112.552 I1.035 J2.611 E.0234
G2 X84.203 Y113.114 I1.982 J1.912 E.02204
G1 X84.038 Y113.628 E.01693
G2 X84.078 Y114.339 I2.728 J.203 E.02239
G1 X84.268 Y114.815 E.01607
G1 X84.613 Y115.227 E.01685
G1 X85.129 Y115.591 E.0198
G3 X85.171 Y115.847 I-.128 J.153 E.00885
G1 X85.019 Y115.917 E.00525
G2 X83.952 Y115.62 I-1.286 J2.552 E.03495
G2 X83.225 Y115.766 I.168 J2.726 E.02332
G2 X82.652 Y116.174 I1.236 J2.342 E.02212
G1 X82.338 Y116.608 E.0168
G2 X82.157 Y117.293 I2.523 J1.033 E.02228
G1 X82.19 Y117.807 E.01615
G1 X82.39 Y118.307 E.01688
G1 X82.769 Y118.814 E.01985
G3 X82.73 Y119.069 I-.167 J.105 E.00881
G1 X82.565 Y119.089 E.00521
G2 X81.446 Y118.424 I-1.779 J1.722 E.0413
G1 X80.903 Y118.39 E.01706
G2 X80.062 Y118.721 I.302 J2.002 E.02858
G2 X79.461 Y119.401 I1.176 J1.647 E.0287
G2 X79.289 Y120.125 I2.526 J.98 E.02341
G2 X79.541 Y121.176 I2.793 J-.114 E.0341
G3 X79.248 Y121.346 I-.187 J.014 E.01323
G2 X78.562 Y120.479 I-2.564 J1.326 E.03488
G2 X77.885 Y120.169 I-1.477 J2.325 E.02342
G2 X76.971 Y120.227 I-.33 J2.027 E.02896
G2 X76.2 Y120.684 I.62 J1.923 E.02834
G2 X75.814 Y121.318 I2.182 J1.762 E.02334
G2 X75.728 Y122.399 I2.689 J.759 E.03422
G3 X75.398 Y122.47 I-.183 J-.046 E.01314
G2 X75.011 Y121.431 I-2.808 J.453 E.03499
G2 X74.465 Y120.928 I-2.114 J1.748 E.02335
G2 X73.592 Y120.701 I-.933 J1.794 E.02852
G2 X72.703 Y120.898 I-.017 J2.02 E.0288
G2 X72.14 Y121.381 I1.487 J2.301 E.02333
G2 X71.724 Y122.384 I2.315 J1.548 E.03427
G3 X71.388 Y122.345 I-.158 J-.103 E.01316
G2 X71.342 Y121.24 I-2.835 J-.435 E.03489
G2 X70.979 Y120.593 I-2.557 J1.011 E.02333
G2 X70.415 Y120.176 I-1.927 J2.011 E.02205
G1 X69.905 Y120.011 E.01681
G2 X69.193 Y120.05 I-.211 J2.678 E.02242
G1 X68.716 Y120.242 E.01612
G1 X68.304 Y120.586 E.01683
G1 X67.94 Y121.102 E.0198
G3 X67.683 Y121.143 I-.152 J-.127 E.0089
G1 X67.614 Y120.992 E.00521
G2 X67.911 Y119.923 I-2.555 J-1.287 E.03501
G2 X67.765 Y119.197 I-2.738 J.173 E.02329
G2 X67.197 Y118.504 I-1.805 J.9 E.02833
G2 X66.358 Y118.136 I-1.215 J1.631 E.02897
G2 X65.619 Y118.196 I-.151 J2.742 E.02332
G2 X64.694 Y118.761 I.954 J2.602 E.03421
G3 X64.442 Y118.537 I-.072 J-.173 E.01317
G2 X65.055 Y117.613 I-2.017 J-2.004 E.03499
G2 X65.14 Y116.875 I-2.68 J-.683 E.02336
G2 X64.796 Y116.014 I-2.021 J.309 E.02933
G2 X64.129 Y115.432 I-1.62 J1.184 E.02799
G2 X63.408 Y115.261 I-.988 J2.557 E.0233
G2 X62.355 Y115.513 I.112 J2.795 E.03416
G3 X62.185 Y115.221 I-.014 J-.187 E.01316
G2 X63.052 Y114.533 I-1.309 J-2.541 E.03492
G2 X63.362 Y113.859 I-2.324 J-1.476 E.02333
G2 X63.303 Y112.941 I-2.041 J-.331 E.02909
G2 X62.846 Y112.172 I-1.935 J.63 E.02828
G2 X62.213 Y111.786 I-1.743 J2.149 E.02332
G2 X61.132 Y111.7 I-.759 J2.696 E.03422
G3 X61.063 Y111.37 I.046 J-.182 E.01313
G2 X62.1 Y110.983 I-.453 J-2.805 E.03493
G2 X62.602 Y110.438 I-1.753 J-2.118 E.0233
G2 X62.827 Y109.766 I-2.301 J-1.141 E.02229
G1 X62.825 Y109.235 E.01665
G2 X62.568 Y108.575 I-2.704 J.673 E.02227
G1 X62.238 Y108.178 E.01619
G1 X61.784 Y107.893 E.01681
G1 X61.179 Y107.705 E.01986
G3 X61.06 Y107.476 I.075 J-.184 E.00881
G1 X61.184 Y107.362 E.00528
G2 X62.291 Y107.314 I.434 J-2.814 E.03496
G2 X62.937 Y106.951 I-1.007 J-2.549 E.0233
G2 X63.356 Y106.389 I-1.981 J-1.91 E.02204
G1 X63.521 Y105.876 E.0169
